X: 204
T:The Ninety-Eight March
C:as played by Randal Bays: The Salmon's Leap
M:4/4
F:http://blackrosetheband.googlepages.com/ABCTUNES.ABC May 2009
L:1/8
R:reel
K:Emin
g2f2|e3f e2d2|e2 B2 B2 A2|B2 e2 e2 d2|e4 e2 d2|
B3c (3BcB A2|G2E2E2D2|E8-|E4 e2f2|
g3a {ga}g2e2|d4e2f2|(3gag e2 d2B2|e4 e2d2|
B3c (3BcB A2|G2E2E2D2|E8-|E2 EE G2A2|
B3d e2 f2|g4(3fgf e2|d3e (3ded B2|A4 G2A2|
B2e2 e2 (3fgf|e2d2d2B2|e8-|e4 f2ef|
g3a (3gag e2|d4 e3f|g2e2d2B2|e4e2d2|
B3c (3BcB A2|G2 z2 E4|E8-|E4||

